web/packages/design/src/ResourceIcon/assets/oracle.svg

<svg width="72" height="72" viewBox="0 0 72 72" fill="none" xmlns="http://www.w3.org/2000/svg">
<path d="M62.9824 35.3298C62.8167 31.9934 61.4182 28.8284 59.0449 26.4551C56.5132 23.9233 53.0804 22.5 49.5 22.5H22.5C18.9196 22.5 15.4868 23.9233 12.9551 26.4551C10.4233 28.9868 9 32.4196 9 36L9.01758 36.6702C9.18329 40.0066 10.5818 43.1716 12.9551 45.5449C15.4868 48.0767 18.9196 49.5 22.5 49.5H49.5L50.1702 49.4824C53.5066 49.3167 56.6716 47.9182 59.0449 45.5449C61.5767 43.0132 63 39.5804 63 36L62.9824 35.3298ZM71.9714 37.1162C71.6954 42.6772 69.3661 47.9547 65.4104 51.9104C61.1908 56.13 55.4674 58.5 49.5 58.5H22.5C16.5326 58.5 10.8092 56.13 6.5896 51.9104C2.63388 47.9547 0.304576 42.6772 0.0285645 37.1162L0 36C0 30.0326 2.37003 24.3092 6.5896 20.0896C10.8092 15.87 16.5326 13.5 22.5 13.5H49.5C55.4674 13.5 61.1908 15.87 65.4104 20.0896C69.63 24.3092 72 30.0326 72 36L71.9714 37.1162Z" fill="#C74634"/>
</svg>

<svg xmlns="http://www.w3.org/2000/svg" width="72" height="72" fill="none" viewBox="0 0 72 72"><path fill="#c74634" d="M62.982 35.33A13.5 13.5 0 0 0 49.5 22.5h-27c-3.58 0-7.013 1.423-9.545 3.955A13.5 13.5 0 0 0 9 36l.018.67A13.5 13.5 0 0 0 22.5 49.5h27l.67-.018A13.5 13.5 0 0 0 63 36zm8.99 1.786A22.5 22.5 0 0 1 49.5 58.5h-27A22.5 22.5 0 0 1 .029 37.116L0 36a22.5 22.5 0 0 1 22.5-22.5h27A22.5 22.5 0 0 1 72 36z"/></svg>
